!!!COM: Wallace, W. V.
!!!LAR: Arban, Jean-Baptiste
!!!OTL: Why Do I Weep for Thee
!!!OPR: The Art of Phrasing: 150 Classic and Popular Melodies
!!!ONM: No. 008
!!!OMD: Andante con tristesso
**kern	**dynam
*ITromp	*
*ITrd1c2	*
*clefG2	*
*A-:	*
*k[b-e-a-d-]	*
*M4/4	*
*met(c)	*
=1	=1
!!LO:TX:i:b:t=dolce
(4cc	p
(8.b-L	.
16a-))J	.
(4e-	.
4f)	.
=2	=2
2.g,	.
4a-	.
=3	=3
(4b-	.
4cc)	.
(4.dd-	.
8cc)	.
=4	=4
2cc	.
2r	.
=5	=5
4cc	.
(8.b-L	.
16a-)J	.
(4e-	.
4f)	.
=6	=6
2.g,	.
4a-	.
=7	=7
4b-	.
(8.dd-L	.
16cc)J	.
(4.cc	.
8b-)	.
=8	=8
2a-	.
2r	.
=9	=9
4b-	.
8.b-L	.
16b-J	.
(4dd-	.
4f)	.
=10	=10
2.a-,	.
4a-	.
=11	=11
4.g	<
8cc	(
(4b	(
8dd)	(
=12	=12
2.cc	[
4cc	pp
=13	=13
4.ee-	.
8ee-	.
(4ff	.
4cc)	.
=14	=14
(4.ee-	.
8dd-)	.
4cc,	.
4a-	.
=15	=15
(2f	.
2g)	.
=16	=16
2a-	.
2r	.
=17	=17
4ee-	.
(8.dd-L	.
16cc)J	.
(4b-	.
8.dd-L	.
16cc)J	.
=18	=18
2cc	.
2r	.
=19	=19
4r	.
2ee-^	.
!!LO:TX:i:b:t=rall.
(8.fL	.
16a-)J	.
=20	=20
(4g	.
2cc)	.
4b-	.
=21	=21
[2a-	.
4a-]	.
4r	.
==|!	==|!
*-	*-
!!!OCL: Edwin Franko Goldman
!!!OCL: Walter M. Smith
!!!OCL: Claude Gordon
!!!YOR: Arban's Complete Conservatory Method for Trumpet/Cornet
!!!PPR: Carl Fischer
!!!PPP: New York, NY
!!!PDT: 1893///
!!!reprint: Carl Fischer, 1982: ISBN 0-8258-0385-3
!!!EFL: 8/150
!!!ENC: Hubert Léveillé Gauvin
!!!END: 2018/05/22/